public/assets/images/service/05.svg

<svg width="37" height="26" viewBox="0 0 37 26" fill="none" xmlns="http://www.w3.org/2000/svg">
<path d="M8.98036 11.6913L6.0999 11.07C5.30919 10.9006 4.57495 11.5219 4.57495 12.3126V13.4987C4.57495 14.4588 5.30919 14.6847 6.21286 14.6847H9.37572C9.99699 14.6847 10.6183 14.5718 10.6183 13.894V13.7246C10.6183 12.7079 9.94051 11.8608 8.98036 11.6913ZM5.64806 13.4987C5.64806 13.4422 5.64806 13.4422 5.64806 12.2561C5.64806 12.1432 5.76102 12.0302 5.87398 12.0867L8.75444 12.7079C9.1498 12.8209 9.4322 13.1598 9.48868 13.5551C7.51189 13.5551 5.8175 13.5551 5.64806 13.4987Z" fill="#20282D"/>
<path d="M34.622 5.64796L30.5555 3.72765C29.2 3.10638 27.7315 2.88046 26.3195 3.16286L25.6982 1.92031C25.2464 0.790715 24.1733 0 22.9307 0H9.71449C8.47194 0 7.39883 0.734235 6.94699 1.86383L4.74429 6.43867C4.23597 5.70444 3.38878 5.2526 2.4851 5.2526H1.52495C0.677755 5.2526 0 5.93036 0 6.77755V7.39883C0 8.24602 0.677755 8.92378 1.52495 8.92378H2.99342C2.37214 9.71449 2.08975 10.7311 2.08975 11.7478V15.1365C2.08975 16.4356 2.54158 17.6781 3.44526 18.7512V21.2928C3.44526 22.4224 4.34893 23.3261 5.47852 23.3261H7.56827C8.69786 23.3261 9.60153 22.4224 9.60153 21.2928V20.2762H20.8975C23.3826 23.6649 27.2796 25.1334 27.3361 25.1334C27.4491 25.1899 27.562 25.1899 27.7315 25.1334C27.788 25.0769 36.1469 22.027 36.1469 14.4023V8.07658C36.1469 7.05995 35.5257 6.0998 34.622 5.64796ZM7.96362 2.31566C8.24602 1.58143 8.92378 1.12959 9.71449 1.12959H22.9307C23.7214 1.12959 24.3992 1.58143 24.7381 2.37214L25.2464 3.44526C25.0205 3.50174 24.7945 3.61469 24.5686 3.72765L20.5021 5.64796C19.5984 6.0998 18.9771 7.00347 18.9771 8.0201H5.13964C5.36556 7.68123 5.13964 8.24602 7.96362 2.31566ZM1.12959 7.39883V6.77755C1.12959 6.55163 1.29903 6.38219 1.52495 6.38219H2.4851C3.61469 6.38219 4.01005 7.39883 4.12301 7.56827C4.06653 7.68123 4.01005 7.73771 3.89709 7.85066H1.52495C1.29903 7.79418 1.12959 7.62475 1.12959 7.39883ZM8.47194 21.2363C8.47194 21.7446 8.07658 22.14 7.56827 22.14H5.42204C4.91373 22.1965 4.51837 21.7446 4.51837 21.2363V19.5984C5.19612 19.9938 5.98684 20.2197 6.77755 20.2197H8.47194V21.2363ZM6.72107 19.1466C4.68781 19.1466 3.10638 17.1698 3.10638 15.0801V11.6913C3.10638 10.7311 3.50173 9.82745 4.17949 9.09321H18.9771V14.0634H12.7644C12.482 14.0634 12.1996 14.2893 12.1996 14.6282C12.1996 14.9671 12.4255 15.193 12.7644 15.193H19.0336C19.0901 15.5884 19.0901 15.9272 19.2031 16.2661H12.7644C12.482 16.2661 12.1996 16.492 12.1996 16.8309C12.1996 17.1698 12.4255 17.3957 12.7644 17.3957H19.429C19.6549 18.017 19.8808 18.6383 20.2197 19.1466H6.72107ZM35.0173 14.4023C35.0173 20.6715 28.6916 23.552 27.562 24.0038C23.4955 22.3659 20.1067 18.8642 20.1067 14.4023C20.1067 12.3126 20.1067 11.183 20.1067 8.07658C20.1067 7.45531 20.4456 6.94699 21.0104 6.66459L25.0769 4.74429C26.7148 3.95357 28.5222 3.95357 30.1601 4.74429L34.2266 6.66459C34.735 6.94699 35.1303 7.45531 35.1303 8.07658V14.4023H35.0173Z" fill="#20282D"/>
<path d="M33.0971 7.96353L29.3695 6.21266C28.2399 5.64786 26.8279 5.64786 25.6983 6.21266L22.0271 7.96353C21.8577 8.07649 21.6882 8.24593 21.6882 8.47184V14.4022C21.6882 18.8641 25.5853 21.2927 27.2797 22.1399C27.4492 22.1964 27.6186 22.1964 27.788 22.1399C29.4824 21.2927 33.3795 18.8641 33.3795 14.4022V8.47184C33.3795 8.24593 33.2665 8.07649 33.0971 7.96353ZM32.3064 14.4022C32.3064 18.0169 29.1435 20.1631 27.5621 21.0103C25.6983 19.9937 22.8178 17.9604 22.8178 14.4022V8.81072L26.2066 7.17281C27.0538 6.77745 28.0704 6.77745 28.9176 7.17281L32.3064 8.81072V14.4022Z" fill="#20282D"/>
<path d="M25.3597 14.2321C25.1337 14.0626 24.7949 14.1191 24.5689 14.345C24.343 14.5709 24.456 14.9098 24.6819 15.1357L26.8281 16.7736C27.054 16.9431 27.3929 16.8866 27.6188 16.6607L30.7817 12.5377C30.9511 12.3118 30.8947 11.9729 30.6687 11.747C30.4428 11.5775 30.1039 11.634 29.878 11.8599L27.054 15.5311L25.3597 14.2321Z" fill="#20282D"/>
</svg>

<svg xmlns="http://www.w3.org/2000/svg" width="37" height="26" fill="none" viewBox="0 0 37 26"><path fill="#20282d" d="M8.98 11.691 6.1 11.07c-.79-.17-1.525.452-1.525 1.243v1.186c0 .96.734 1.186 1.638 1.186h3.163c.621 0 1.242-.113 1.242-.791v-.17c0-1.016-.677-1.863-1.638-2.033M5.648 13.5v-1.243c0-.113.113-.226.226-.17l2.88.622c.396.113.678.452.735.847-1.977 0-3.672 0-3.84-.056"/><path fill="#20282d" d="m34.622 5.648-4.067-1.92c-1.355-.622-2.823-.848-4.235-.565l-.622-1.243C25.246.79 24.173 0 22.931 0H9.714a2.95 2.95 0 0 0-2.767 1.864L4.744 6.439a2.76 2.76 0 0 0-2.259-1.186h-.96C.678 5.253 0 5.93 0 6.778v.62a1.52 1.52 0 0 0 1.525 1.526h1.468c-.62.79-.903 1.807-.903 2.824v3.389c0 1.299.452 2.541 1.355 3.614v2.542c0 1.13.904 2.033 2.034 2.033h2.09a2.025 2.025 0 0 0 2.033-2.033v-1.017h11.296c2.485 3.389 6.382 4.857 6.438 4.857.113.057.226.057.396 0 .056-.056 8.415-3.106 8.415-10.73V8.076c0-1.017-.621-1.977-1.525-2.429M7.964 2.316c.282-.735.96-1.186 1.75-1.186h13.217c.79 0 1.468.451 1.807 1.242l.508 1.073c-.226.057-.451.17-.677.283l-4.067 1.92c-.904.452-1.525 1.355-1.525 2.372H5.14c.226-.339 0 .226 2.824-5.704M1.13 7.399v-.621c0-.226.169-.396.395-.396h.96c1.13 0 1.525 1.017 1.638 1.186-.056.113-.113.17-.226.283H1.525c-.226-.057-.395-.226-.395-.452m7.342 13.837a.89.89 0 0 1-.904.904H5.422c-.508.056-.904-.395-.904-.904v-1.638a4.5 4.5 0 0 0 2.26.622h1.694zm-1.75-2.09c-2.034 0-3.616-1.976-3.616-4.066v-3.389c0-.96.396-1.864 1.073-2.598h14.798v4.97h-6.213a.566.566 0 0 0-.564.565c0 .34.226.565.564.565h6.27c.056.395.056.734.17 1.073h-6.44a.566.566 0 0 0-.564.565c0 .339.226.565.564.565h6.665c.226.621.452 1.242.79 1.75zm28.295-4.744c0 6.27-6.325 9.15-7.455 9.602-4.067-1.638-7.455-5.14-7.455-9.602V8.077c0-.622.339-1.13.903-1.412l4.067-1.92a5.74 5.74 0 0 1 5.083 0l4.067 1.92c.508.282.903.79.903 1.412v6.325z"/><path fill="#20282d" d="M33.097 7.964 29.37 6.213a4.19 4.19 0 0 0-3.67 0l-3.672 1.75c-.17.113-.339.283-.339.509v5.93c0 4.462 3.897 6.89 5.592 7.738q.255.084.508 0c1.694-.847 5.592-3.276 5.592-7.738v-5.93a.59.59 0 0 0-.283-.508m-.79 6.438c0 3.615-3.164 5.761-4.745 6.608-1.864-1.016-4.744-3.05-4.744-6.608V8.811l3.389-1.638a3.25 3.25 0 0 1 2.71 0l3.39 1.638z"/><path fill="#20282d" d="M25.36 14.232c-.226-.17-.565-.113-.791.113s-.113.565.113.79l2.146 1.639c.226.17.565.113.79-.113l3.164-4.123c.17-.226.113-.565-.113-.791-.226-.17-.565-.113-.791.113l-2.824 3.671z"/></svg>
